X: 624
T: Eda ile
C: Dede Efendi
O: Turkey
F: http://compmusic.upf.edu/node/140
N: buselik--sarki--aksak--eda_ile--dede_efendi
N: makam= buselik
N: form= sarki
N: usul= aksak = 9/8
M: 9/8
L: 1/16
K: C    
Q: 1/4=120
%%MIDI tuningsystem comma53
c2z2 e2dc dccB BAG2 z2 | A3BG4d_7/8e deg^f edcB  | 
w:   |   | 
c4 d3e edcd e4 z2 | ef efa2 gfed c2de fgfe  | 
w:   |   | 
f2z2 a2gf fed2 c'4 _ba | g_b agga gffe eddf edcB  | 
w:   |   | 
c2z2 dcBc dfed cBA2 z2 | A2 B2A2 BccB A2^G4(3cBA  | 
w:   |   | 
A4 z2ef edcd e2f2 z2 | e4ed efed cBAB cde2  | 
w:   |   | 
fedf edcB cBA^G A4 ^ga | b4a4bc' ba^ga b2z2  | 
w:   |   | 
a2b2 a2bc' ba^gf gfe2 z2 | d2 g2f2 g2gf egf3e(3agf  | 
w:   |   | 
f2z2 a2gf fed2 c'4 _ba | g_b agga gffe eddf edcB  | 
w:   |   | 
c2z2 dcBc dfed cBA2 z2 | A2 B2A2 BccB A2^G4(3cBA  | 
w:   |   | 
A4 z2ef edcd e2f2 z2 | Bc ccB2 c2Bc dBc2 d2e2  | 
w:   |   | 
dedf e2d2 c2B2 ABA2 G2 | AB cde2 dfe2 d2c2 B2A2  | 
w:   |   | 
BcBc dfed cBA^G A4 z2 | |


